img/logo.svg

<svg width="185" height="36" viewBox="0 0 185 36" fill="none" xmlns="http://www.w3.org/2000/svg">
<path d="M58.2951 4C61.0864 4 63.5181 4.54676 65.59 5.64029C67.662 6.73381 69.2735 8.34532 70.4246 10.4748C71.5757 12.6043 72.1512 15.1799 72.1512 18.2014V34.7338H65.1584V27.482H51.3454V34.7338H44.439V18.2014C44.439 15.1799 45.0145 12.6043 46.1656 10.4748C47.3167 8.34532 48.9282 6.73381 51.0001 5.64029C53.0721 4.54676 55.5037 4 58.2951 4ZM65.1584 21.8705V17.554C65.1584 15.0504 64.5397 13.1655 63.3023 11.8993C62.0649 10.6043 60.3814 9.95684 58.2519 9.95684C56.0936 9.95684 54.3958 10.6043 53.1584 11.8993C51.9498 13.1655 51.3454 15.0504 51.3454 17.554V21.8705H65.1584Z" fill="#303030"/>
<path d="M113.542 4C117.111 4 119.888 5.05036 121.873 7.15108C123.859 9.22302 124.852 12.2302 124.852 16.1727V34.7338H117.859V16.3885C117.859 14.259 117.298 12.6619 116.176 11.5971C115.082 10.5036 113.629 9.95684 111.816 9.95684C109.83 9.95684 108.248 10.5324 107.068 11.6835C105.888 12.8058 105.298 14.518 105.298 16.8201V34.7338H98.3051V16.3885C98.3051 14.259 97.7871 12.6619 96.7511 11.5971C95.7152 10.5036 94.3051 9.95684 92.5209 9.95684C90.5641 9.95684 88.9957 10.5324 87.8159 11.6835C86.636 12.8058 86.0461 14.518 86.0461 16.8201V34.7338H79.0533V4.51798H85.8303V8.23022C86.7511 6.8777 87.9741 5.84173 89.4993 5.1223C91.0245 4.3741 92.7799 4 94.7655 4C96.8375 4 98.6504 4.38849 100.204 5.16547C101.758 5.91367 102.953 7.00719 103.787 8.44604C104.823 7.00719 106.176 5.91367 107.845 5.16547C109.542 4.38849 111.442 4 113.542 4Z" fill="#303030"/>
<path d="M141.674 35.2518C139.285 35.2518 136.969 34.9353 134.724 34.3022C132.508 33.6403 130.724 32.7914 129.371 31.7554L131.746 26.4892C133.04 27.4389 134.58 28.2014 136.364 28.777C138.148 29.3525 139.933 29.6403 141.717 29.6403C143.702 29.6403 145.17 29.3525 146.12 28.777C147.069 28.1727 147.544 27.3813 147.544 26.4029C147.544 25.6835 147.256 25.0935 146.681 24.6331C146.134 24.1439 145.415 23.7554 144.522 23.4676C143.659 23.1799 142.479 22.8633 140.983 22.518C138.681 21.9712 136.796 21.4245 135.328 20.8777C133.861 20.3309 132.594 19.4532 131.53 18.2446C130.494 17.036 129.976 15.4245 129.976 13.4101C129.976 11.6547 130.451 10.0719 131.4 8.66187C132.35 7.22302 133.774 6.08633 135.674 5.2518C137.602 4.41727 139.947 4 142.71 4C144.638 4 146.522 4.23022 148.364 4.69065C150.206 5.15108 151.817 5.81295 153.199 6.67626L151.04 11.9856C148.249 10.4029 145.458 9.61151 142.666 9.61151C140.71 9.61151 139.256 9.92806 138.307 10.5612C137.386 11.1942 136.925 12.0288 136.925 13.0647C136.925 14.1007 137.458 14.8777 138.522 15.3957C139.616 15.8849 141.271 16.3741 143.487 16.8633C145.789 17.4101 147.674 17.9568 149.141 18.5036C150.609 19.0504 151.861 19.9137 152.897 21.0935C153.961 22.2734 154.494 23.8705 154.494 25.8849C154.494 27.6115 154.004 29.1942 153.026 30.6331C152.076 32.0432 150.638 33.1655 148.71 34C146.781 34.8345 144.436 35.2518 141.674 35.2518Z" fill="#303030"/>
<path d="M185 0H160V25H185V0Z" fill="#FBBF3A"/>
<path d="M174.194 11.187C175.518 11.4029 176.532 11.8993 177.237 12.6762C177.943 13.4388 178.295 14.3885 178.295 15.5252C178.295 16.4029 178.065 17.2158 177.604 17.964C177.144 18.6978 176.439 19.2877 175.489 19.7338C174.554 20.1798 173.403 20.4029 172.036 20.4029C170.971 20.4029 169.921 20.2662 168.885 19.9928C167.863 19.705 166.993 19.3021 166.273 18.7842L167.633 16.1079C168.209 16.5395 168.871 16.8777 169.619 17.1223C170.381 17.3525 171.158 17.4676 171.95 17.4676C172.827 17.4676 173.518 17.3021 174.022 16.9712C174.525 16.6259 174.777 16.1439 174.777 15.5252C174.777 14.2877 173.835 13.669 171.95 13.669H170.353V11.3597L173.46 7.84171H167.029V5.03595H177.604V7.30214L174.194 11.187Z" fill="#303030"/>
<path d="M35 0H0V35H35V0Z" fill="#FBBF3A"/>
<path fill-rule="evenodd" clip-rule="evenodd" d="M35 0H34.0496L6.3415 4.93292L5.12524 11.9759L23.2277 9.24358L8.70048 20.1673L12.1852 25.1002L26.0279 13.3845L20.699 35H31.1476L35 5.2384V0Z" fill="white"/>
<path fill-rule="evenodd" clip-rule="evenodd" d="M1.83288 29.1563L8.32148 15.5172L3.77889 16.1678L0 24.608V35H15.3758L16.7504 29.1563H1.83288Z" fill="#231F20"/>
</svg>

<svg width="185" height="36" viewBox="0 0 185 36" fill="none" xmlns="http://www.w3.org/2000/svg"><path d="M58.295 4c2.791 0 5.223.547 7.295 1.64 2.072 1.094 3.683 2.705 4.835 4.835 1.15 2.13 1.726 4.705 1.726 7.726v16.533h-6.993v-7.252H51.345v7.252H44.44V18.2c0-3.021.575-5.597 1.727-7.726 1.15-2.13 2.762-3.741 4.834-4.835C53.072 4.547 55.504 4 58.295 4zm6.863 17.87v-4.316c0-2.504-.618-4.388-1.856-5.655-1.237-1.295-2.92-1.942-5.05-1.942-2.158 0-3.856.647-5.094 1.942-1.208 1.267-1.813 3.151-1.813 5.655v4.317h13.813zM113.542 4c3.569 0 6.346 1.05 8.331 3.151 1.986 2.072 2.979 5.08 2.979 9.022v18.56h-6.993V16.39c0-2.13-.561-3.727-1.683-4.792-1.094-1.093-2.547-1.64-4.36-1.64-1.986 0-3.568.575-4.748 1.726-1.18 1.123-1.77 2.835-1.77 5.137v17.914h-6.993V16.388c0-2.129-.518-3.726-1.554-4.79-1.036-1.094-2.446-1.641-4.23-1.641-1.957 0-3.525.575-4.705 1.726-1.18 1.123-1.77 2.835-1.77 5.137v17.914h-6.993V4.518h6.777V8.23c.921-1.352 2.144-2.388 3.67-3.108C91.024 4.374 92.78 4 94.765 4c2.072 0 3.884.388 5.438 1.165 1.554.749 2.749 1.842 3.583 3.281 1.036-1.439 2.389-2.532 4.058-3.28C109.542 4.387 111.442 4 113.542 4zm28.132 31.252a25.48 25.48 0 0 1-6.95-.95c-2.216-.662-4-1.51-5.353-2.547l2.375-5.266c1.294.95 2.834 1.712 4.618 2.288 1.784.575 3.569.863 5.353.863 1.985 0 3.453-.288 4.403-.863.949-.604 1.424-1.396 1.424-2.374 0-.72-.288-1.31-.863-1.77-.547-.49-1.266-.878-2.159-1.165-.863-.288-2.043-.605-3.539-.95-2.302-.547-4.187-1.094-5.655-1.64a9.349 9.349 0 0 1-3.798-2.633c-1.036-1.209-1.554-2.82-1.554-4.835 0-1.755.475-3.338 1.424-4.748.95-1.439 2.374-2.576 4.274-3.41C137.602 4.417 139.947 4 142.71 4c1.928 0 3.812.23 5.654.69 1.842.461 3.453 1.123 4.835 1.986l-2.159 5.31c-2.791-1.583-5.582-2.374-8.374-2.374-1.956 0-3.41.316-4.359.95-.921.632-1.382 1.467-1.382 2.503s.533 1.813 1.597 2.33c1.094.49 2.749.98 4.965 1.468 2.302.547 4.187 1.094 5.654 1.64a9.197 9.197 0 0 1 3.756 2.59c1.064 1.18 1.597 2.777 1.597 4.792 0 1.726-.49 3.31-1.468 4.748-.95 1.41-2.388 2.533-4.316 3.367-1.929.834-4.274 1.252-7.036 1.252z" fill="#303030"/><path d="M185 0h-25v25h25V0z" fill="#FBBF3A"/><path d="M174.194 11.187c1.324.216 2.338.712 3.043 1.49.706.762 1.058 1.712 1.058 2.848 0 .878-.23 1.69-.691 2.439-.46.734-1.165 1.324-2.115 1.77-.935.446-2.086.669-3.453.669-1.065 0-2.115-.137-3.151-.41-1.022-.288-1.892-.69-2.612-1.209l1.36-2.676c.576.431 1.238.77 1.986 1.014.762.23 1.539.346 2.331.346.877 0 1.568-.166 2.072-.497.503-.345.755-.827.755-1.446 0-1.237-.942-1.856-2.827-1.856h-1.597v-2.31l3.107-3.517h-6.431V5.036h10.575v2.266l-3.41 3.885z" fill="#303030"/><path d="M35 0H0v35h35V0z" fill="#FBBF3A"/><path fill-rule="evenodd" clip-rule="evenodd" d="M35 0h-.95L6.342 4.933l-1.217 7.043 18.103-2.732L8.7 20.167l3.485 4.933 13.843-11.716L20.699 35h10.449L35 5.238V0z" fill="#fff"/><path fill-rule="evenodd" clip-rule="evenodd" d="M1.833 29.156L8.32 15.517l-4.542.65L0 24.609V35h15.376l1.374-5.844H1.833z" fill="#231F20"/></svg>
